syllabary-hiragana.svg

<svg fill="currentColor" viewBox="0 0 24 24"><path d="M9 4v2H6v2h3v2c-2.75 0-5 2.27-5 5.03a5.04 5.04 0 0 0 5.03 5.03c.86 0 1.69-.29 2.37-.8.23.28.48.56.75.83l1.41-1.42c-.26-.25-.49-.52-.7-.78l1-1c1.07-1.07 1.92-2.66 2.56-4.3.89.52 1.58 1.31 1.58 2.41 0 1.32-.53 2.6-1.46 3.54l1.41 1.41A7 7 0 0 0 20 15c0-1.96-1.18-3.64-2.85-4.45l.35-1.26-1.95-.51-.34 1.27c-.08 0-.15-.05-.24-.05H11V8h5V6h-5V4m0 8h3.5c-.56 1.37-1.31 2.72-2.06 3.47l-.65.66c-.54-1.2-.79-2.54-.79-4.13m-2 0c0 2.07.41 3.94 1.3 5.59-.36.3-.8.47-1.27.47-1.7 0-3.03-1.33-3.03-3.03C6 13.34 7.32 12 9 12"/></svg>

<svg  viewBox="0 0 24 24" fill="currentColor"><path  d="M9 4V6H6V8H9V10C6.25 10 4 12.27 4 15.03C4 17.8 6.26 20.06 9.03 20.06C9.89 20.06 10.72 19.77 11.4 19.26C11.63 19.54 11.88 19.82 12.15 20.09L13.56 18.67C13.3 18.42 13.07 18.15 12.86 17.89L13.86 16.89C14.93 15.82 15.78 14.23 16.42 12.59C17.31 13.11 18 13.9 18 15C18 16.32 17.47 17.6 16.54 18.54L17.95 19.95C19.26 18.64 20 16.86 20 15C20 13.04 18.82 11.36 17.15 10.55L17.5 9.29L15.55 8.78L15.21 10.05C15.13 10.05 15.06 10 14.97 10H11V8H16V6H11V4M11 12H14.5C13.94 13.37 13.19 14.72 12.44 15.47L11.79 16.13C11.25 14.93 11 13.59 11 12M9 12C9 14.07 9.41 15.94 10.3 17.59C9.94 17.89 9.5 18.06 9.03 18.06C7.33 18.06 6 16.73 6 15.03C6 13.34 7.32 12 9 12Z"/></svg>
